X:67
T:Go to the Devil and Shake Yourself
S:Petrie's Third Collection of Strathspey Reels and Country Dances &c.
Z:Steve Wyrick , 7/31/05
N:Petrie's Third Collection, page 25
L:1/8
M:6/8
R:Jig
K:A
a|e2c (cBc)|e2c c2a|e2c (cBc)|A2F F2a|e2c cBc|Ace aga|fed cdB|A2F F2::G|
ABA cBc|A2F F2A|G2B BcA|G2E E2A|ABA (cBc)|Ace aga|fed cdB|A2F F2:|
